X:828
T:Sally Kelly
R:Reel
B:The Athole Collection
M:C|
L:1/8
K:D Minor
E|Ddd^c d3e|edcd efga|~fde^c d2AF|GBAG FDD:|
E|F>GAc F/F/F A2|F>GAc ~BGGg|~fde^c d2AF|GBAG FDDE|
F>GAc F/F/F A2|F>GAc ~BGGg|~fde^c d2 AF|GBAG FDD||

